X:1
T:Title
%%score { 1 | 2 }
L:1/8
M:4/4
K:F
V:1 treble nm="Grand Piano"
V:2 bass 
V:1
 z4 z2 z[Q:1/4=106] C | [A,CF]2 [A,CF]2 [A,CF]3 [CEG] | [CFA][CEG][CFA][CFB] [CFc]4 | %3
 [Fd]2 [Fd]2 [CEG]4 | [EB]2 E2 F3 C | F2 F2 F3 [EG] | [FA][EG]AB c3 A | [EG]2 [EG]2 [EG]3 A | %8
[M:7/8] BAB c d3 |[M:1/8] c |[M:4/4] f2 [Af]2 [Af]3 [Fc] | [Fd][Fc][Fd][Ff] [Fc]4 | %12
 [Fd]2 [Fd]2 [CEG]4 | [EB]2 [CE]2 [A,CF]4 |] %14
V:2
 z4 z2 z C, | F,2 F,2 F,3 C, | F,C,F,G, A,4 | B,,2 B,,2 C,4 | [C,G,]2 [C,B,C]2 [F,A,C]3 C, | %5
 [F,A,C]2 [F,A,C]2 [F,A,C]3 [C,C] | [F,C][C,C][K:treble][F,CF][G,CF] [A,CF]3[K:bass] [F,CF] | %7
 [C,C]2 [C,C]2 [C,C]3 [F,CF] |[M:7/8][K:treble] [G,CE][F,CF][G,C] [A,CF] [B,F]3 | %9
[M:1/8][K:bass] [G,B,E] |[M:4/4] [F,A,F]2 [F,C]2 [F,C]3 [F,A,] | %11
 [B,,B,][B,,B,][B,,B,][D,B,] [F,A,]4 | B,,2 B,,2 C,4 | [C,G,]2 [C,B,]2 [F,,F,]4 |] %14

